Adwaita++/status/16/network-cellular-4g.svg

<svg height="16" width="16" xmlns="http://www.w3.org/2000/svg">
  <path d="m2.063 0c-1.152 0-2.063.912-2.063 2.063v11.874c0 1.151.912 2.063 2.063 2.063h11.874c1.151 0 2.063-.912 2.063-2.063v-11.874c0-1.152-.912-2.063-2.063-2.063zm-.063 3h2v4h1v-1h2v7h-2v-4h-1c-1 0-2-.842-2-2zm8.063.031h1.906c.003 0-.003.032 0 .031.527-.02 1.072.077 1.5.47.415.38.593 1.007.562 1.593h.031v.875h-2v-.968c-.017-.003.003-.003-.03 0h-2.002c-.006.003-.029-.004-.03 0-.008.022.006.046 0 .062v5.844c-.024-.022 0 .062 0 .062h1.968c.007-.02.03-.016.031 0v-1.969h-1v-2h3v3.938c0 .562-.227 1-.562 1.375a1.966 1.966 0 0 1 -1.47.625v.031h-1.967c-.625 0-.994-.241-1.344-.563a1.863 1.863 0 0 1 -.625-1.437c0-.002-.031.002-.03 0v-6.063c.062-.437.205-.889.562-1.28.357-.393.946-.626 1.5-.626z" fill="#474747"/>
</svg>

<svg xmlns="http://www.w3.org/2000/svg" width="16" height="16">
    <path d="M2.063 0C.911 0 0 .912 0 2.063v11.874C0 15.088.912 16 2.063 16h11.874C15.088 16 16 15.088 16 13.937V2.063C16 .911 15.088 0 13.937 0zM2 3h2v4h1V6h2v7H5V9H4c-1 0-2-.842-2-2zm8.063.031h1.906c.003 0-.003.032 0 .031.527-.02 1.072.077 1.5.47.415.38.593 1.007.562 1.593h.031V6h-2v-.968c-.017-.003.003-.003-.03 0H10.03c-.006.003-.029-.004-.03 0-.008.022.006.046 0 .062V10.938c-.024-.022 0 .062 0 .062h1.968c.007-.02.03-.016.031 0V9.031h-1v-2h3v3.938c0 .562-.227 1-.562 1.375a1.966 1.966 0 0 1-1.47.625V13H10c-.625 0-.994-.241-1.344-.563A1.863 1.863 0 0 1 8.031 11c0-.002-.031.002-.03 0V4.937c.062-.437.205-.889.562-1.28.357-.393.946-.626 1.5-.626z" style="marker:none" color="#bebebe" overflow="visible" fill="#474747"/>
</svg>
